static/fa/svgs/regular/credit-card.svg

<svg xmlns="http://www.w3.org/2000/svg" viewBox="0 0 576 512"><!--! Font Awesome Free 6.1.1 by @fontawesome - https://fontawesome.com License - https://fontawesome.com/license/free (Icons: CC BY 4.0, Fonts: SIL OFL 1.1, Code: MIT License) Copyright 2022 Fonticons, Inc.--><path d="M168 336c13.3 0 24 10.7 24 24s-10.7 24-24 24h-48c-13.3 0-24-10.7-24-24s10.7-24 24-24h48zm192 0c13.3 0 24 10.7 24 24s-10.7 24-24 24H248c-13.3 0-24-10.7-24-24s10.7-24 24-24h112zM512 32c35.3 0 64 28.65 64 64v320c0 35.3-28.7 64-64 64H64c-35.35 0-64-28.7-64-64V96c0-35.35 28.65-64 64-64h448zm0 48H64c-8.84 0-16 7.16-16 16v32h480V96c0-8.84-7.2-16-16-16zm16 144H48v192c0 8.8 7.16 16 16 16h448c8.8 0 16-7.2 16-16V224z"/></svg>

<svg xmlns="http://www.w3.org/2000/svg" viewBox="0 0 576 512"><!--! Font Awesome Free 6.1.1 by @fontawesome - https://fontawesome.com License - https://fontawesome.com/license/free (Icons: CC BY 4.0, Fonts: SIL OFL 1.1, Code: MIT License) Copyright 2022 Fonticons, Inc. --><path d="M168 336C181.3 336 192 346.7 192 360C192 373.3 181.3 384 168 384H120C106.7 384 96 373.3 96 360C96 346.7 106.7 336 120 336H168zM360 336C373.3 336 384 346.7 384 360C384 373.3 373.3 384 360 384H248C234.7 384 224 373.3 224 360C224 346.7 234.7 336 248 336H360zM512 32C547.3 32 576 60.65 576 96V416C576 451.3 547.3 480 512 480H64C28.65 480 0 451.3 0 416V96C0 60.65 28.65 32 64 32H512zM512 80H64C55.16 80 48 87.16 48 96V128H528V96C528 87.16 520.8 80 512 80zM528 224H48V416C48 424.8 55.16 432 64 432H512C520.8 432 528 424.8 528 416V224z"/></svg>
